X:251
T:Johnson War Horse
C:John Reischman
N:From the CD "Up in the Woods" Transcribed by Mike Stangeland.
R:bluegrass
L:1/8
Q:1/4=201
M:4/4
K:A
z8 | "Fiddle break""F#m"ga z2 ga za | "E"ga gf e2 ef | fg ga gf ec | (3"F#m"efe cB AG FA | 
=f^f a2 a2 af | "E"ga gf e2 ef | fg ga gf ec | (3"F#m"efe cB A2 AF | "E"GF G2 ^AB2F | 
GF GA cB AG | "F#m"AG AB cB ce | =f^f =f^f f/e/c BA | "E"GF G2 ^AB zF | GF GA cB AG | 
"D"FE FG AG FD | "A"[=c^D][^cE] [cE][cE] [c2E2] [cE]F | "E"GF G2 ^AB zF | GF GA cB AG | 
"F#m"AG AB cB ce | =f^f =f^f f/e/c BA | "E"GF G2 ^AB zF | GF GA cB AG | "D"FE FG AG FE | 
"C#7"C4 B,4 | A,4 G,4 | "Reischman's brea""F#m"Bc fz fz fa | "E"ge {=c}^cz Bz Bc | 
e2 {=g}^g2 fe cA | "F#m"cB AG {=F}^F4 | FG Ac ef e2 | "E"=g^g fe B2 AB | ef ge ag fe | 
(3"F#m"BcB AG F2 FD | "E"E2 E2 {F}G2 B2 | {d}e2 fg ag fe | "F#m"fc eB cA BA | 
{=c}^c2 BA cB AF | "E"EE zE {F}G2 BB | {d}e2 fg ag fA | "D"DF Ac dc BA | "A"Bc B2 A2 G2 | 
"E"Ge BF eA Ge | Ge Be eB ee | "F#m"Ae cG eA Ae | {A}Be fc ec Be | "E"E2 EG B2 B^d | 
e2 eg ag fe | "D"df g2 ga gf | "C#7"=f2 c2 B2 A2 | Bc BA BA FE | "F#m"F8 | z8 | 
z8 | z8 | z8 | z8 | z8 | z8 | z8 | z8 | z8 | z8 | 


